P3
8 8
255
11 18 12 11 18 12 35 74 38 75 157 81 75 157 81 35 74 38 11 18 12 11 18 12
11 18 12 49 104 54 131 239 137 131 239 137 131 239 137 131 239 137 49 104 54 11 18 12
35 74 38 131 239 137 131 239 137 11 22 12 11 22 12 131 239 137 131 239 137 35 74 38
75 157 81 131 239 137 11 22 12 131 239 137 131 239 137 11 22 12 131 239 137 75 157 81
75 157 81 131 239 137 11 22 12 131 239 137 131 239 137 11 22 12 131 239 137 75 157 81
35 74 38 131 239 137 131 239 137 11 22 12 11 22 12 131 239 137 131 239 137 35 74 38
11 18 12 49 104 54 131 239 137 131 239 137 131 239 137 131 239 137 49 104 54 11 18 12
11 18 12 11 18 12 35 74 38 75 157 81 75 157 81 35 74 38 11 18 12 11 18 12
